X:1
T:The Well-Tempered Clavier Book II - XXIII
T:BWV 892    (A = 415 Hz)
T:J. S. Bach
%%score { ( 1 3 ) | ( 2 4 ) }
L:1/8
M:4/4
K:B
V:1 treble 
V:3 treble 
V:2 bass 
V:4 bass 
V:1
"^Praeludium" z/ B,/C/D/ E/F/G/A/ B/4A/4Bc/ d/4c/4d/4c/4d/4c/4B/4c/4 | %1
 d/A/B/d/ e/A/B/e/ f/B/g/f/ e/d/c/B/ | A/^E/F/c/ A/c/F/c/ A/E/F/c/ A/c/F/c/ | %3
 B/^E/F/d/ B/d/F/d/ B/E/F/d/ B/d/F/d/ | c/^E/F/=e/ c/e/A/e/ c/E/F/e/ c/e/A/e/ | %5
 d/A/B/f/ d/f/B/f/ d/A/B/f/ d/f/B/f/ | =a/e/f/a/ d/f/B/f/ a/f/e/d/ e/d/c/B/ | %7
 g/e/d/c/ d/c/B/A/ f/d/c/B/ c/B/A/G/ | e/d/c/d/ eG F/G/A/B/ c/d/e/c/ | %9
 d/e/d/c/ B/A/G/F/ ^E/C/E/G/ c2- | c/B/A/G/ F/^E/D/c/ B/A/G/F/ E/D/C/B/ | [FA]2 z2 z cfd | %12
 e4- ede^e | f4- f^ef^^f | g2- g/d/g/f/ e/d/c/B/ A/B/c/G/ | %15
 ^^F/G/A/E/ D/C/B,/A,/ B,/D/G/B,/ A,/G/A,/F/ | %16
 G/[I:staff +1]B,/C/D/ G,/[I:staff -1] z/ z z/[I:staff +1] A,/B,/C/ B,/A,/G,/^F,/ | %17
 ^E,/G,/A,/B,/[I:staff -1] z z/[I:staff +1] F,/ G,/A,/[I:staff -1] z z/ ^E/F/G/ | %18
 A/F/^E/D/ C/ z/ z z/[I:staff +1] G,/A,/B,/ A,/G,/F,/E,/ | %19
 D,/F,/G,/=A,/[I:staff -1] z/ z[I:staff +1] E,/ F,/G,/[I:staff -1] z z/ D/E/F/ | %20
 G/E/D/C/ B,/ z/ z z/ D/E/F/ E/D/C/B,/ | %21
 A,/C/D/E/ z/ z[I:staff +1] B,/[I:staff -1] C/D/ E/F/ G/ A/B/c/ | %22
 d/B/A/G/ F/ z/ z z g/4f/4g/4f/4{e} d{c}B | b4- bg{f}^e{d}c | a4- af{e}d{c}B | %25
 ^e/f/ g2 c ^^f/4g/4a/ c2 a | aggf g/4f/4g/4f/4g/4f/4g/4f/4 g/4f/4g/4f/4 ^e/f/ | %27
 ^e4 ^E/F/G/A/ G/F/E/D/ | ^^C/^E/F/G/ z z/ D/ E/F/ G/A/ ^^B/ ^^c/d/^e/ | %29
 f/d/A/F/[I:staff +1] D/C/^B,/A,/ B,/D/G/[I:staff -1] ^B/ d/f/=e/d/ | %30
 e/c/G/E/[I:staff +1] C/B,/A,/G,/ A,/C/F/[I:staff -1] A/ c/e/d/c/ | %31
 d/B/F/D/[I:staff +1] B,/=A,/G,/F,/ G,/B,/=D/[I:staff -1] ^E/ G/B/A/G/ | %32
 A/D/E/c/ A/c/E/c/ A/D/E/c/ A/c/E/c/ | F/C/=D/c/ F/c/D/c/ F/C/D/B/ F/B/D/B/ | %34
 =D/A,/B,/^E/ D/E/B,/E/ D/A,/B,/E/ D/E/B,/E/ | =D/A,/B,/F/ C/F/B,/^E/ F z z2 | %36
 z/ B/A/G/ F/E/D/C/ D/ B/c/d/ e/f/g/a/ | b/f/d/B/ c/b/=a/g/ afda | g/e/B/G/ A/g/f/e/ fd^Bf | %39
 e/c/G/E/ F/e/d/c/ d/B/A/G/ A/G/F/^E/ | c/A/G/F/ G/F/^E/D/ B/G/F/E/ F/E/D/C/ | %41
 A/G/F/G/ AC B,/C/D/E/ F/G/=A/F/ | G/=A/G/F/ E/D/C/B,/ ^A,/F/B,/F/ E/B,/A,/E/ | %43
[K:bass] D/C/B,/A,/ B,/D/F/=A,/ G,/F/E/D/ C/D/E/B,/ | %44
 ^A,/B,/C/G,/ F,/E,/D,/C,/ D,/F,/B,/D,/ C,/B,/E,/A,/ | [D,F,B,] z z2 z4 | %46
[M:2/2][K:treble]"^Fuga"[Q:1/4=180] z8 | z8 | z8 | z8 | z8 | z8 | z8 | z8 | z8 | z8 | z8 | z8 | %58
 z8 | F4 A4 | d4 B4 | G4 ^e4 | f2 ^ed c2 B2 | AG B4 AG | FG =A4 GF | EB d4 cB | Ae g4 fe | d8- | %68
 d2 ^^f2 g2 c2 | B8- | BA B4- BA | GB d4 cB | A4 z4 | z2 fe defd | BcdB GA B2- | BGAB c4- | %76
 cFGA B4- | B4 ABcA | F2 ba gabg | efge cd e2- | e2 dc B4- | B2 cB A2 G2 | ^^F2 z2 z2 G^F | %83
 G2 z2 z4 | z8 | z8 | z8 | F4 A4 | d4 B4 | G4 ^e4 | f4- f^efg | a4- aagf | =f2 =g^g =g^ga=g | %93
 d4 z4 | z2 gf efge | cdec AB c2- | cA B2- B3 B- | BG A2- A3 =A | =A^^F G2- G^B c2- | c2 c2 d4- | %100
 d2 =A4 GF | E2 G2 c4- | c2 fe f2 d2 | B2 cd e2 =A2 | G3 =A F4 | E4 z2 b=a | g=abg ef=ge | %107
 cd e4 d2- | d2 g2- gf g2 | f8- | f2 e2- ed e2 | d8- | d2 c2- cB c2 | B3 B e2- ee | d3 d g3 g | %115
 f3 f b3 b | a3 c =a3 f | g8- | ggfe defd | e8 | d4- d2 c2 | B4- BBef | g4- ggfe | d8- | d8- | %125
 dd^^c^B cd^ef | g4 f4- | f4- ff^ed | ^^c4- cA d2- | d^B^^c^e G=BAG | F8 | z8 | B,CDB, ^E4 | %133
 F4 FC =A2- | A2 =A2 G2 F2- | F2 ED EF G2- | G2 G2 F2 E2- | E2 DC DE F2- | FGFE d4 | g4 e4 | %140
 c4 a4 | b4 e4- | e8- | eded e2 z2 | dcdc d2 z2 | z =F=dc BcdB | G=ABG =F=dcB | A4 z F B2- | %148
 B2 AG A4 | !fermata!B8 |] %150
V:2
 B,, z z2 z/ B,/A,/G,/ F,/E,/D,/C,/ | %1
 B,, z D,/4C,/4D,/4C,/4D,/4C,/4B,,/4C,/4 D, z/ E,/ F,/4E,/4F,/4E,/4F,/4E,/4D,/4E,/4 | %2
 F,A,CA, F,A,CE, | D,B,DB, F,B,DB, | A,,CEC A,CA,F, | B,,DFD B,DB,F, | D,B,F,D, B,,F,B,D, | %7
 E,G,A,,G, D,F,G,,F, | C,/D,/E,/F,/ G,/A,/B,/G,/ A,CA,F, | %9
 B,B,, B,/4A,/4B,3/2- B,/A,/G,/F,/ ^E,/C,/E,/G,/ | A,CD,F, G,B,C,^E, | %11
 F,/F,,/G,,/A,,/ B,,/C,/D,/^E,/ F,/G,/F,/=E,/ D,/G,/F,/G,/ | %12
 C,/D,/E,/C,/ F,/E,/D,/C,/ B,,/C,/B,,/A,,/ G,,/C,/B,,/C,/ | %13
 F,,/C,/F,/E,/ D,/G,/F,/G,/ C,/D,/C,/B,,/ A,,/D,/C,/D,/ | G,,D,G,B,, C,D,E,A,, | %15
 D,C,B,,^^F,, G,,E,,C,,D,, | G,,2 z/ D,/^E,/^^F,/ G,/ z/ z z2 | %17
 C,, z C,/D,/E,/ z/ z B,/C/ D/ z/ z | F,, z z/ B,/A,/G,/ F,/ z/ z z2 | %19
 B,,, z B,,/C,/D,/ z/ z =A,/B,/ C/ z/ z | E,, z z/ =A,/G,/F,/ E,/F,/G,/A,/ G,/F,/E,/D,/ | %21
 C, z F,/G,/A,/ z/ z4 | B,, z z/ E/D/C/ B,/D/F,/D/ B,/D/F,/D/ | %23
 G,/B,/D,/B,/ G,/B,/D,/B,/ G,/C/^E,/C/ G,/C/E,/C/ | %24
 F,/A,/C,/A,/ F,/A,/C,/A,/ F,/B,/D,/B,/ F,/B,/D,/B,/ | %25
 G,/C/^E,/C/ G,/C/E,/C/ A,/D/^^F,/D/ A,/D/F,/D/ | B,/D/G,/D/ B,/D/G,/D/ ^B,/D/^^G,/D/ B,/D/G,/D/ | %27
 A,4 z/ D,/^E,/F,/ E,/D,/^^C,/^B,,/ | ^E, z A,/^B,/^^C/ z/ z4 | D, z z2 G, z z2 | G, z z2 F, z z2 | %31
 F, z z2 ^E, z z2 | F,F,,A,,C, F,A,CA, | B,F,=D,F, D,B,,D,F, | z G,G,G, G,G,G,G, | F,4- F, z z2 | %36
 D,/B,,/C,/D,/ E,/F,/G,/A,/ B, z D/4C/4D/4C/4D/4C/4B,/4C/4 | %37
 D z F/4^E/4F/4E/4F/4E/4D/4E/4 F/=E/D/C/ B,/=A,/G,/F,/ | E,DC^A, D/C/^B,/A,/ G,/F,/E,/D,/ | %39
 C,B,A,F, B,,D,^E,G, | A,,C,D,F, G,,B,,C,^E, | F,,/G,,/A,,/B,,/ C,/D,/E,/C,/ D,F,D,B,, | %42
 E,E,, E,/4D,/4E,3/2- E,D,C,F, | B,,C,D,B,, E,,G,,E,,C,, | F,,G,,A,,F,, B,,G,,E,,F,, | %45
 [B,,,B,,] z z2 z4 |[M:2/2] z8 | z8 | z8 | z8 | F,4 A,4 | D4 B,4 | G,4 ^E4 | F2 ^ED C2 B,2 | %54
 A,G, B,4 A,G, | F,G, =A,4 G,F, | E,B, D4 CB, | A,E G4 FE | D2 E2 D2 C2 | B,2 A,G, F,4- | %60
 F,3 ^^F, G,A,B,G, | C3 B, A,G, A,2 | D2 D,4 ^E,2 | F,2 G,2 A,2 F,2 | B,2 F,E, F,2 B,2- | %65
 B,2- B,A, B,G,A,B, | C4- CC F2- | F2 FE D2 C2 | B,2 C2 D2 E2 | D3 C B,2 =D2 | C3 G, A,B, C2- | %71
 C2 B,A, G,F, G,2 | F,4 A,4 | D4 B,4 | G,4 ^E4 | F4- F=EDC | D6[I:staff -1] D2 | %77
 CD E4[I:staff +1] A,2 | B,8- | B,4- B,A,G,A, | B,F,B,A, G,A,B,G, | E,2 z2 z4 | z2 E2 D2 C2 | %83
 D4 E4 | DCB,C =D4 | C4- CB,A,B, | G,4- G,G,A,B, | C4- CEDC | B,2 z2 z4 | z2 B,2 A,3 G, | %90
 F,2 z2 z4 | z8 | z8 | z8 | E,4 C,4 | A,,4 ^^F,4 | G,4- G,F,^E,F, | z8 | E,4 G,4 | C4 =A,4 | %100
 F,4 D4 | E6 C2 | F4 z2 F2 | D2 E2 z2 C2 | B,4- B,3 =A, | G,4 B,4 | E4 C4 | ^A,4 ^^F4 | %108
 G^F^ED ^^CDEC | D4- DEFD | EDCB, A,B,CA, | B,4- B,CDB, | CB,A,G, ^^F,G,A,F, | %113
 G,2- G,/F,/E,/D,/ C,B,A,F, | B,2- B,/A,/G,/F,/ E,DCA, | D2- D/C/B,/A,/ G,F=FC | %116
[K:treble][K:treble] FGAF D=EFD | ^B,CDB, CD E2- | EEDC B,CDB, | %119
[K:bass][K:bass] G,A,B,G, A,B, C2- | CB,A,G, ^^F,G,A,F, | G,B,CD E2 B,2- | B,G,A,B, C2 F2- | %123
 FGFE D4- | DEDC B,4- | B,2 z2 z4 | ^^C,A,,^B,,C, D,^E,F,D, | G,F,G,A, B,A,B,G, | A,4- A,3 ^^G, | %129
 z8 | F,4 A,4 |[I:staff -1] D4 B,4 | G,4[I:staff +1] G,A, B,2- | B,B,A,G, A,2[I:staff -1] F2- | %134
 F2 ^B,F E2 D2- | D2 C^B, CD E2- | E2 A,E D2 C2- | C2 B,A, B,C D2- | DED[I:staff +1]C B,CB,=A, | %139
 G,B,ED CDEC | A,B,CA, F,G, A,2- | A,F,B,A, G,4- | G,F,E,G, C4- | CB,CB, C2 z2 | FEFE F2 z2 | %145
 z2 B,2 =D4- | D4 z2 G,2 | F,2 z2 z4 | z2 z C, F,4- | F,8 |] %150
V:3
 x8 | x8 | x8 | x8 | x8 | x8 | x8 | x8 | x8 | x8 | z4 z2 z C- | C2 z2 z A ^B2 | cG=A^A B4- | %13
 BAB^B c4- | c/c/B/A/ B/ z/ z z4 | x8 | x8 | x8 | x8 | x8 | x8 | x8 | x8 | z gdf ^e z z2 | %24
 z fce d z z2 | z B/A/ B2 z A/G/ Ac | cBdc d4- | d/d/^^c/^B/ c/A/=B/G/ z4 | x8 | x8 | x8 | x8 | %32
 x8 | x8 | x8 | =D2 A,G, [A,C] z z2 | x8 | x8 | x8 | x8 | x8 | x8 | x8 |[K:bass] x8 | x8 | x8 | %46
[M:2/2][K:treble] x8 | x8 | x8 | x8 | x8 | x8 | x8 | x8 | x8 | B,4 D4 | G4 E4 | C4 A4 | %58
 B2 AG F2 E2 | DC E4 DC | B,F A4 GF | ^EB d4 cB | A2 B2 A2 G2 | F2 ^ED CD =E2- | E2 DC B,C D2 | %65
 E3 F G4 | A3 B c4- | ccBA G^^FGF | GBAc B2 A2- | AAGF ^EFEF | G4 C2 F2- | F4 ^E4 | F4 z4 | x8 | %74
 x8 | x8 | x8 | x8 | x8 | x8 | B,4 D4 | G4 E4 | C4 A4 | B4- B-BAG | F4- F=AGF | ^EFG=E F4- | %86
 F4 ^E4 | F4 z4 | z2 BA GABG | ^EFGE[I:staff +1] ^^C[I:staff -1]D ^E2- | ED^EF G4- | GFGA B4- | %92
 BBAG AB c2- | ccBA GABG | C^B, C4 G2- | G2 ^^F2 z2 z A | D3 ^F ^EG C2- | C3 =E DF B,2- | %98
 B,3 ^B, E3 ^E | F2 =AG FGAF | DEFD ^B,C D2- | D2 C4 E2 | =A4 z2 A2- | A2 G=A B2 F2- | %104
 FD E2- EC D2 | EB e2- ec d2 | z2[I:staff +1] G4 E2- | E2[I:staff -1] cB ABcA | B4 A4- | %109
 A=edc ^BcdB | G4 ^^F3 c- | ccBA GABG | ^E2 ^^FG A3 A- | A^^F G2- GG c2- | cA B2- BB e2- | %115
 ec d2- dd g2- | g^e f2- f/g/f/=e/ d2- | defd e^Bcd | A4 =B4- | BcdB cGAc | F2 B2 A4- | %121
 A2 G^^F G3 B | e4- eedc | B4 B^^FGA | BAc^^F G4- | G2 z2 z4 | z2 ^e4 d^c | =B2 d2 G4- | GBAG F4 | %129
 ^E8- | E^ED^^C D4 | z2 F=E DEFD | x8 | x8 | x8 | x8 | x8 | x8 | B4 D2 B2- | B2 G4 c2 | FGAF cedc | %141
 fedf B4- | BAGB ABcA | F4- F2 z2 | B4- B2 z2 | z4 z2 ^E2- | E4 z2 C2- | CGFE D3 =D | C^D E3 GFE | %149
 D8 |] %150
V:4
 x8 | x8 | x8 | x8 | x8 | x8 | x8 | x8 | x8 | x8 | x8 | x8 | x8 | x8 | x8 | x8 | x8 | x8 | x8 | %19
 x8 | x8 | F,, z z2 z4 | x8 | x8 | x8 | x8 | x8 | x8 | A,, z z2 z4 | x8 | C, z z2 z4 | %31
 B,, z z2 z4 | x8 | x8 | F,,F,,F,,F,, F,,F,,F,,F,, | F,,4- F,,/G,,/A,,/B,,/ C,/^D,/=E,/C,/ | x8 | %37
 x8 | x8 | x8 | x8 | x8 | x8 | x8 | x8 | x8 |[M:2/2] B,,4 D,4 | G,4 E,4 | C,4 A,4 | %49
 B,2 A,G, F,2 E,2 | D,C, E,4 D,C, | B,,F, A,4 G,F, | ^E,B, D4 CB, | A,2 B,2 A,2 G,2 | %54
 F,2 ^E,D, C,D, =E,2- | E,2 D,C, B,,4- | B,,3 ^B,, C,D,E,C, | F,3 E, D,C, D,2 | G,2 G,,4 A,,2 | %59
 B,,2 z2 z4 | x8 | x8 | x8 | x8 | B,,4 D,4 | G,4 E,4 | C,4 A,4 | B,2 DC B,2 A,2 | G,4- G,^^F,G,F, | %69
 G,2 B,A, G,2 F,2 | ^E,4 F,4 | C,8 | F,,4 z4 | x8 | x8 | x8 | z2 B,A, G,A,B,G, | %77
 E,F,G,E, C,D, E,2- | E,C, D,2 E,2 B,,2 | C,D,E,C, F,4 | B,,2 z2 z4 | z B,,E,D, C,D,E,C, | %82
 A,,B,,C,A,, ^^F,,G,, A,,2- | A,,G,,A,,B,, C,4- | C,F,,G,,A,, B,,4- | B,,A,,B,,C, D,2 C,2 | %86
 B,,G,,A,,B,, C,2 B,,2- | B,,B,,A,,G,, F,,2 z2 | z D,^E,^^F, G,^F, G,2- | G,2 G,4 ^^C,2 | %90
 D,2 z2 z4 | x8 | x8 | G,,4 B,,4 | x8 | x8 | x8 | F,4- F,=E,D,F, | E,3 D, C,D,E,C, | %99
 =A,,C, F,4 ^B,,2- | B,,C,D,^B,, G,,^A,,B,,G,, | C,D,E,C, =A,,B,,C,A,, | %102
 F,,G,,=A,,F,, D,,E,,F,,D,, | G,,F,,E,,F,, G,,F,,G,,=A,, | B,,8 | E,4 z4 | x8 | x8 | x8 | x8 | x8 | %111
 x8 | x8 | x8 | x8 | x8 |[K:treble][K:treble] x8 | x8 | x8 |[K:bass][K:bass] x8 | B,,4 D,4 | %121
 G,4 E,4 | C,4 A,4 | B,4- B,CB,A, | G,4- G,A,G,^F, | ^E,4- E,F,E,D, | x8 | x8 | x8 | A,4 A,,4 | %130
 D,4- D,=E,D,^C, | B,,A,, B,,2- B,,C, D,2- | D,C,B,,D, C,B,,A,,G,, | F,,C, F,2- F,=E,D,C, | %134
 ^B,,C,D,B,, G,,^A,,B,,G,, | C,D, E,2- E,D,C,=B,, | A,,B,,C,A,, F,,G,,A,,F,, | %137
 B,,C, D,2- D,C,B,,C, | G,4- G,=A,G,F, | E,8- | E,6 F,E, | D,4- D,C,B,,D, | C,4- C,D,E,C, | %143
 A,4- A,G,F,G, | =A,4- A,G,F,G, | G,8 | B,4 z2 ^E,2 | F,=E,^D,C, B,,C,D,^E,, | F,,8 | %149
 !fermata!B,,8 |] %150

